X:193
T:Wallingford House. (p)1665.PLFD.193
M:6/4
L:1/4
Q:3/4=80
S:Playford, Dancing Master,2nd Supp. to 3rd Ed.,1665
O:England
H:166
Z:Chris Partington
K:Bb
g|g>fed>cB|c>dBA2G|B.cdec2|d2g^f2g|
a>g^f=e2d|d3-d2:||:d|defgab|c'afb2d|efgcAF|
B3Bcd|e>dcdg^f|g3a3|baga^fd|g3-g2:|
